public/assets/sponsors/google-cloud.svg

<svg xmlns="http://www.w3.org/2000/svg" viewBox="0 0 2278 1833" fill="none" xmlns:v="https://vecta.io/nano"><path d="M1445.82 504.816h69.46l198.01-197.991 9.71-84.091C1354.47-102.555 792.035-67.414 466.717 301.083 376.329 403.359 310.827 525.189 275 657c22.016-9.024 46.494-10.529 69.467-4.102l396.015-65.359s20.102-33.363 30.631-31.312c176.129-193.478 472.597-216.039 676.067-51.411h-1.36z" fill="#ea4335"/><path d="M1995.16 656.467C1949.64 488.823 1856.28 338.135 1726.42 223l-277.77 277.856c117.29 95.855 184.13 240.39 181.26 391.898v49.363c136.56 0 247.28 110.763 247.28 247.363s-110.72 247.36-247.28 247.36h-494.56l-49.35 50.05v296.73l49.35 49.36h494.56c355.13 2.74 645.34-283.05 648.07-638.3 1.64-215.78-104.57-417.608-282.82-538.213z" fill="#4285f4"/><path d="M639.752 1830.99H1135v-396.66H639.752c-35.316 0-70.085-7.67-102.253-22.33l-69.537 21.64-199.578 198.33L251 1701.56c111.835 84.64 248.445 130.12 388.752 129.43z" fill="#34a853"/><path d="M639.443 546.005C284.112 548.056-2.04 837.74.011 1193.04 1.241 1391.41 93.8 1578.15 251.163 1699l286.835-286.81c-124.414-56.19-179.785-202.74-123.594-327.15 56.192-124.399 202.754-179.766 327.167-123.579 54.825 24.744 98.711 68.759 123.594 123.579L1152 798.232c-121.95-159.675-311.718-253.047-512.557-252.227z" fill="#fbbc05"/></svg>

<svg viewBox="0 0 2278 1833" fill="none" xmlns="http://www.w3.org/2000/svg">
<path d="M1445.82 504.816H1515.28L1713.29 306.825L1723 222.734C1354.47 -102.555 792.035 -67.4144 466.717 301.083C376.329 403.359 310.827 525.189 275 657C297.016 647.976 321.494 646.471 344.467 652.898L740.482 587.539C740.482 587.539 760.584 554.176 771.113 556.227C947.242 362.749 1243.71 340.188 1447.18 504.816H1445.82Z" fill="#EA4335"/>
<path d="M1995.16 656.467C1949.64 488.823 1856.28 338.135 1726.42 223L1448.65 500.856C1565.94 596.711 1632.78 741.246 1629.91 892.754V942.117C1766.47 942.117 1877.19 1052.88 1877.19 1189.48C1877.19 1326.08 1766.47 1436.84 1629.91 1436.84H1135.35L1086 1486.89V1783.62L1135.35 1832.98H1629.91C1985.04 1835.72 2275.25 1549.93 2277.98 1194.68C2279.62 978.9 2173.41 777.072 1995.16 656.467Z" fill="#4285F4"/>
<path d="M639.752 1830.99H1135V1434.33H639.752C604.436 1434.33 569.667 1426.66 537.499 1412L467.962 1433.64L268.384 1631.97L251 1701.56C362.835 1786.2 499.445 1831.68 639.752 1830.99Z" fill="#34A853"/>
<path d="M639.443 546.005C284.112 548.056 -2.03982 837.74 0.0109545 1193.04C1.24142 1391.41 93.7998 1578.15 251.163 1699L537.998 1412.19C413.584 1356 358.213 1209.45 414.404 1085.04C470.596 960.641 617.158 905.274 741.571 961.461C796.396 986.205 840.282 1030.22 865.165 1085.04L1152 798.232C1030.05 638.557 840.282 545.185 639.443 546.005Z" fill="#FBBC05"/>
</svg>
